X:1
T:Temple (Davies), 66.84
T:Henry Walford Davies (1869-1941)
T:Temple (Davies), 66.84
T:Public Domain
C:Henry Walford Davies (1869-1941)
Z:Public Domain
%%score ( 1 2 ) ( 3 4 )
L:1/8
M:none
K:D
V:1 treble 
V:2 treble 
V:3 bass 
V:4 bass 
V:1
 D2 | A3 A B2 F2 | A6 [FA]2 | [Fc]2 [FA]2 [^E^G]3 [CF] | [CF]6 [DF]2 | [CG]2 [DA]2 [GB]2 (FE) | %6
 (DE) [Fc]2 [GB]2 | d2 A2 (F[EG]) | [DA]2 [DFA]2 (B4 A4) |] %9
V:2
 D2 | A3 A B2 F2 | A6 x2 | x8 | x8 | x6 c2 | d2 x4 | A4 F x | x4 F8 |] %9
V:3
 D,2 | A,3 A, B,2 F,2 | A,6 [F,C]2 | [A,C]2 [F,C]2 [C,C]3 [F,A,] | [F,A,]6 [D,A,]2 | %5
 [E,G,]2 F,2 [G,D]2 [A,C]2 | B,2 [A,C]2 [G,D]2 | [F,D]4 ([D,A,][E,G,]) | F,2 [D,A,]2 (B,,4 D,4) |] %9
V:4
 D,2 | A,3 A, B,2 F,2 | A,6 x2 | x8 | x8 | x2 F,2 x4 | B,2 x4 | x6 | F,2 D8 x2 |] %9

